X: 1
T: J. B.
C: R-85
M: C|
Z: Transcribed to abc by Mary Lou Knack
R: reel
K: G
"G"D2B2 A2G2| D6 DD| D2B2 A2G2| "C"E8| \
"C"E2c2 B2A2| "D"F8| d2d2 c2A2| "G"B8|
"G"D2B2 A2G2| D8| D2B2 A2G2| "C"E6 E2| \
"C"E2c2 B2A2| "D"d2d2 d2d2| e2d2 c2A2| "G"G6 z2|]
|:\
"G"B2B2 B4| B2B2 B4| B2d2 G3A| B8|
"C"c2c2 c3c| "G"c2B2 B2BB|1 "A"B2A2 A2B2| "D"A4 d4 :|2 "D"d2d2 c2A2| "G"G8 |]
%%text 9/1/98
